X:1
T:Title
%%score { ( 1 3 ) | ( 2 4 ) }
L:1/8
Q:1/4=110
M:4/4
K:C
V:1 treble nm="Grand Piano"
V:3 treble 
V:2 bass 
V:4 bass 
V:1
 .[G,_EG]2 .[G,EG]2 .[G,FG]2 .[G,FG]2 | .[G,_EG]2 .[G,FG]2 [Ec]2 z2 | G2 F2 _E2[K:bass] [F,B,D]2 | %3
w: J.~Lincoln~Hall * * *|||
 [_E,C]6 z2 | [G,_EG]2 [G,EG]2 [G,FG]2 [G,FG]2 | [G,_EG]2 [G,FG]2 [Ec]4 | %6
w: |||
 G2 G2 G2 G2[Q:1/4=108][Q:1/4=107][Q:1/4=105][Q:1/4=103][Q:1/4=101][Q:1/4=100][Q:1/4=98][Q:1/4=96][Q:1/4=95][Q:1/4=93][Q:1/4=91][Q:1/4=89][Q:1/4=88][Q:1/4=86][Q:1/4=84] | %7
w: |
[M:9/8] G6-[Q:1/4=100] G z z |[M:4/4] z [Bdf][Bdf][_B^ce] [=Bdf]2 d2 | %9
w: ||
 d[Bdf][Bdf][_B^ce] [=Bdf]2 G2 | GABc d2 ^c2 | d2 [Bdfg]6 | c2 c>c c2 A>[FB] | c2 g>g g2 c>c | %14
w: |||||
 d2 g>g g2 d>d | e2 g>g g2 z2 | c2 c>c c2 A>[FB] | c2 g>g g2 [Ge]>[Ge] | %18
w: ||||
 [Gd]2 [Gd]2 [^Fd]>[Fe] [Fd]>[FA] | d6 G,G, | f2 e2 f2 GG | e2 _e2 =e2 G,G, | f2 e2 f2 GG | %23
w: |||||
 e2 _e2 =e2 G>G | c2 [ceg]>[ceg] [ceg]2 G>G | d6 z2 |[M:9/8] e6- e z z |[M:4/4] e2 c2 c2 B2 | %28
w: |||||
 [Ec]6 z2 |] %29
w: |
V:2
 .C,2 .C,2 .B,,2 .B,,2 | .C,2 .B,,2 [C,G,]2 z2 | G,2 F,2 _E,2 G,,2 | C,2 (3C,C,C, C,2 C,2 | %4
 C,2 C,2 B,,2 B,,2 | C,2 B,,2 [C,G,]4 | [G,B,F]2 [G,B,F]2 [G,C_E]2 [G,CE]2 | %7
[M:9/8] .C6 z3[K:bass] |[M:4/4] G,[G,D][G,D][G,^C][K:treble] [G,D]2 D2 | %9
 D[G,D][G,D][K:bass][G,^C] [G,D]2 G,2 | G,A,B,[K:treble]C D2 ^C2 | D2 [G,B,DFG]6 | %12
 C2 C>C C2[K:bass] [F,A,F]>[D,G,] | z2[K:treble] [Gce]>[Gce] [Gce]2 C>C | %14
 G2 [GBd]>[GBd] [GBd]2 [G,B,G]>[G,B,G] | G2 [Gce]>[Gce] [Gce]2 z2 | %16
 C2 C>C C2 [F,A,F]>[K:bass][D,G,] | z2[K:treble] [Gce]>[Gce] [Gce]2[K:bass] [C,C]>[C,C] | %18
 [D,B,]2 [D,B,]2 [D,C]>[D,C] [D,C]>[D,C] | [G,B,F]6 z2 | [DBd]2 [^C_B^c]2 [D=Bd]2 z2 | %21
 G2 ^F2 G2 z2 | [DBd]2 [^C_B^c]2 [D=Bd]2 z2 | G2 ^F2 G2 z2 | z2 [CEG]>[CEG] [CEG]2 z2 | %25
 z2[K:bass] [G,B,]>[G,B,] [G,B,]2 z2 | %26
[M:9/8] z2[K:treble] [CG]- [CG]/[CG]/ [CG]2- [CG][F,F]>[F,F] | %27
[M:4/4] [G,CG]2 [G,CE]2 [G,DF]2 [G,DF]2 | [C,G,C]6 z2 |] %29
V:3
 x8 | x8 | x6[K:bass] x2 | x8 | x8 | x8 | x8 |[M:9/8] z3 z B,2- B, G2 |[M:4/4] G2 z2 z4 | x8 | x8 | %11
 x8 | x8 | E6 z2 | x8 | x8 | x8 | E6 z2 | x8 | x8 | x8 | x8 | x8 | x8 | x8 | z2 G>G G2 G>G | %26
[M:9/8] z2 c- c/c/ c2- c[Af]>[Af] |[M:4/4] x8 | x8 |] %29
V:4
 x8 | x8 | x8 | x8 | x8 | x8 | x8 |[M:9/8] [G,D]6- [G,D-]/D/[K:bass] G,2 |[M:4/4] x4[K:treble] x4 | %9
 x3[K:bass] x5 | x3[K:treble] x5 | x8 | x6[K:bass] x2 | [C,G,]6[K:treble] z2 | [G,B,]6 z2 | C6 z2 | %16
 x15/2[K:bass] x/ | [C,G,]6[K:treble][K:bass] z2 | x8 | x8 | x8 | x8 | x8 | x8 | x8 | %25
 x2[K:bass] x6 |[M:9/8] x2[K:treble] x7 |[M:4/4] x8 | x8 |] %29

